X: 2
T:Juliann Johnson
T:Julie Ann Johnson
C:Traditional (Arr. Pete Showman & Portland Collection I)
R:reel
Q:1/2=90
M:C|
L:1/8
K:D
|: "D"fafe dfed | Bd2e d2fg | a2(a2 a)ab2 | "A"a8 |
   "D"fafe dfed | Bd2e d2e2 | f2e2 "G"dAB2 |\
  [1 "A"A8 :|[2 "A"A6 A2 ||
|: "G"BABc d3A | BABc d3A | BABc dAB2 | "D"(A6 A)A |
   "G"BABc d3A | BABc d2e2 | "D"f2e2 "G"dAB2 |\
  [1 "A7"A6 A2 :|[2 "A7"A8 |]
N:Portland Collection, pg 116 - abc by Peter Ostapenko 3/27/2007
N:D Major
